X:340
T:Traver's Jig
R:jig
S:Kevin Finucane
H:Also played in G, #82
Z:id:hn-jig-340
M:6/8
K:A
ecA ~c3|ecA ~B3|Ace ~a3|fec Baf|ecA ~c3|ecA ~B3|Ace ~a3|1 fec A2f:|2 fec A2B||
|:cee fee|aee fea|Ace ~a3|fec B2d|cee fee|aee fea|Ace ~a3|1 fec A2B:|2 fec A2f||

